src/assets/images/svg/current-location.svg

<svg width="22" height="22" viewBox="0 0 22 22" fill="none" xmlns="http://www.w3.org/2000/svg">
  <defs/>
  <g clip-path="url(#clip0)">
    <path fill="#fff" fill-rule="evenodd" d="M11 7a4 4 0 100 8 4 4 0 000-8zm8.94 3A9 9 0 0012 2.06V1a1 1 0 00-1-1 1 1 0 00-1 1v1.06A9 9 0 002.06 10H1a1 1 0 00-1 1 1 1 0 001 1h1.06A9 9 0 0010 19.94V21a1 1 0 001 1 1 1 0 001-1v-1.06A9 9 0 0019.94 12H21a1 1 0 001-1 1 1 0 00-1-1h-1.06zM11 18a7 7 0 11-.01-13.99A7 7 0 0111 18z" clip-rule="evenodd"/>
  </g>
  <defs>
    <clipPath id="clip0">
      <path fill="#fff" d="M0 0h22v22H0z"/>
    </clipPath>
  </defs>
</svg>

<svg width="22" height="22" viewBox="0 0 22 22" fill="none" xmlns="http://www.w3.org/2000/svg">
<g clip-path="url(#clip0)">
<path fill-rule="evenodd" clip-rule="evenodd" d="M11 7C8.79 7 7 8.79 7 11C7 13.21 8.79 15 11 15C13.21 15 15 13.21 15 11C15 8.79 13.21 7 11 7ZM19.94 10C19.48 5.83 16.17 2.52 12 2.06V1C12 0.45 11.55 0 11 0C10.45 0 10 0.45 10 1V2.06C5.83 2.52 2.52 5.83 2.06 10H1C0.45 10 0 10.45 0 11C0 11.55 0.45 12 1 12H2.06C2.52 16.17 5.83 19.48 10 19.94V21C10 21.55 10.45 22 11 22C11.55 22 12 21.55 12 21V19.94C16.17 19.48 19.48 16.17 19.94 12H21C21.55 12 22 11.55 22 11C22 10.45 21.55 10 21 10H19.94ZM11 18C7.13 18 4 14.87 4 11C4 7.13 7.13 4 11 4C14.87 4 18 7.13 18 11C18 14.87 14.87 18 11 18Z" fill="white"/>
</g>
<defs>
<clipPath id="clip0">
<rect width="22" height="22" fill="white"/>
</clipPath>
</defs>
</svg>
